X:1
T:[ID 4-4r]
T:[ID 4-4r]
T:Bezeichnung standardisiert: Walzer Walzer
T:Urheber unbekannt Datum in der hier transkribierten schriftlichen Quelle: 1767
C:Urheber unbekannt
C:Datum in der hier transkribierten schriftlichen Quelle: 1767
L:1/8
M:3/4
K:G
V:1 treble 
V:1
 dB | G2 G2 G2 | G4 d2 | d2 B2 g2 | g2 f2 e2 | d2 dcBc | d4 ed | c2 cB c2 | B2 BA G2 | A2 AGFG | %10
 A4 AB | c2 cB c2 | f2 fe f2 | g2 gabg | d4 AB | c2 cB c2 | f2 fe f2 | g2 gabg | d4 (3def | %19
 g2 f2 e2 | d2 c2 B2 | e2 e2 ef | g4 e2 | d2 B2 d2 | c2 B2 A2 |"^O)" GBdBdB | Acdcdc | Bdgdgd | %28
 Adfdfd |"^O)" GBdBdB | Acdcdc | Bdgdgd | Adfdfd | g2 g2 g2 | g4 :| %35

